symbols/web/south_west/materialsymbolsrounded/south_west_gradN25_48px.svg

<svg xmlns="http://www.w3.org/2000/svg" height="48" width="48"><path d="M11.5 37.9q-.6 0-1-.4t-.4-1V19.7q0-.6.4-1.025.4-.425 1-.425.65 0 1.05.425t.4 1.025v13.35l23.95-24q.45-.4 1-.4t1 .4q.45.45.45 1.025T38.9 11.1L14.95 35.05H28.3q.6 0 1.025.425.425.425.425 1.025 0 .6-.425 1t-1.025.4Z"/></svg>

<svg xmlns="http://www.w3.org/2000/svg" height="48" width="48"><path d="M11.5 37.9Q10.9 37.9 10.5 37.5Q10.1 37.1 10.1 36.5V19.7Q10.1 19.1 10.5 18.675Q10.9 18.25 11.5 18.25Q12.15 18.25 12.55 18.675Q12.95 19.1 12.95 19.7V33.05L36.9 9.05Q37.35 8.65 37.9 8.65Q38.45 8.65 38.9 9.05Q39.35 9.5 39.35 10.075Q39.35 10.65 38.9 11.1L14.95 35.05H28.3Q28.9 35.05 29.325 35.475Q29.75 35.9 29.75 36.5Q29.75 37.1 29.325 37.5Q28.9 37.9 28.3 37.9Z"/></svg>
